X:1
T:Where shall the lover rest
T:Where shall the lover rest
T:Copyright © CPDL
T:Copyright © CPDL
T:Copyright © CPDL
T:Copyright © CPDL
T:Copyright © CPDL
T:Copyright © CPDL
T:Copyright © CPDL
T:Copyright © CPDL
Z:Copyright © CPDL
%%score ( 1 2 ) { ( 3 4 5 ) ( 6 7 8 ) }
L:1/8
Q:1/4=80
M:4/4
K:Eb
V:1 treble nm="P1"
V:2 treble 
V:3 treble nm="P2"
V:4 treble 
V:5 treble 
V:6 bass nm="P3"
V:7 bass 
V:8 bass 
V:1
"^Editor: John Henry Fowler""^(  Revision:   8 - 12 - 2008  )""^Moderato  tranquillo." z | %1
w: |
"^From \"English Lyrics\" -  Set 1 -  Number 3""^Dedicated to Miss Anna Williams.""^Words from poet Sir Walter Scott." z8 | %2
w: |
"^Charles Hubert Hastings Parry""^( 1848 - 1918 )" z8 | z8 | z8 |!p! G2 GB BF F2 | %6
w: |||Where shall the lov- er rest,|
"^cresc." z A>!<(!ce!<)! e G2 z | z e"^cresc."!<(!dc B>c!<)! d2 |!>(! !>!g f2 c!>)! d B2 z | %9
w: Whom the fates sev- er|From his true mai- den breast,|Part- ed for ev- er~?|
!p! z!<(! B_d!<)!f!>(! e>d!>)! e2 | z!<(! B>_d!<)!f!>(! _f!>)! G2 z | z"^dim." A_ce _d>c d2 | %12
w: Where through groves deep and high,|Sounds the far bil- low,|Where ear- ly vio- lets lie|
 z _c>_de B F2 z | z!p!!<(! G d4!<)! (e2- | e!>(!d)!>)! G6 | z2!p!!<)!!<(! (g6 | %16
w: un- der the wil- low.|E- len lo-|* * ro,|Soft|
 g2)!>(! e2 G3!>)! A | B2 E4 z2 | z8 | z8 |!p! G2 GB B>F F2 | z Ace e2 G2 | e2 dc B>c d2 | %23
w: _ shall be his|pil- low.|||There through the sum- mer day,|Cool streams are lav- ing|There, while the te- pest sway,|
 z gfc d2 B2 | B2!<(! _d!<)!f!>(! e>!>)!d e2 |!<(! B _d2!<)! f!>(! _f2!>)! G2 | %26
w: * boughs are wav- ing;|There thou thy rest shalt take|Part- ed for ev- er,|
"^dim. e rit." A!>(! _c2 e _d>!>)!c d2 | z!<(! _c!<)!_de B2 F2 | z!<(! G d4!<)! (e2- | %29
w: Ne- ver a- gain to wake,|Ne- ver, O Ne- ver~!|E- len lo-|
 e!>(!d)!>)! G6 | z2!p!!<)!!<(! (g6 | g2) e2!p! (G3 A) | !>!B2 E4 z2 | z8 | z8 | %35
w: * * ro,|Ne-|* ver, O _|ne- ver|||
"^più moto" G2 GB !>!BF F2 | z!<(! A- A/!<)!c/e !>!e G2 z | z"^cresc."!<(! edc!<)! B>c!f! d2 | %38
w: Where shall the trai- tor rest,|He _ the de- cei- ver,|Who could win mai- den's breast,|
 g f2 c d2 B2 | z!p!!<(! B- B/d/f!<)! e =A2 z | z!<(! B de/f/ =g!<)! !>!G2 z | z =B^d^f g2 =e^A | %42
w: Ru- in, and leave her~?|In _ the lost bat- tle,|Borne down by the fly- ing,|Where ming- les wars rat- tle,|
 z =B ^f^e/>f/ =a =A2 z |!mf! z G!<(! d4!<)! e2- |[M:3/4]!>(! ed!>)! G4 |[M:4/4]!f! g4- ge G>_A | %46
w: With groans of the dy- ing;|El- eu- lo~\--|* * \-~~ro|There _ shall he be|
 B E2 z z2 z G | G2 GB B>F F2 | z!<(! A- A/c/e!<)!!>(! e G2!>)! d | e d2 c"^cresc." B>c d2 | %50
w: ly- ing~! Her|wing shall the ea- gle flap|O'er _ the false- heart- ed, This|warm blood the wolf shall lap,|
 z"^poco" d f>c d B2 z | B2 df e<_d e2 | z Bdf _f2 G2 |!<(! c =e2!<)! g!>(! f>e!>)! f2 | %54
w: E're life be part- ed.|Shame and dis- hon- our sit|By his grave ev- er|Bles- sing shall hal- low it|
 c!<(! =e2!<)! g!>(! ^f ^F2!>)! z | z!f! G!<(! !>!d4!<)! (!>!f2- | f!>(!e)!>)! G6 | z2!p! (g6 | %58
w: Nev- er, O Ne- ver~!|E- len lo-|* * ro,|Ne-|
 g2) e2 z (G2 _A) | B2 E4 z2 | z8 | z8 | z8 | z8 |] %64
w: * ver, O _|ne- ver.|||||
V:2
 x | x8 | x8 | x8 | x8 | x8 | x8 | x8 | x8 | x8 | x8 | x8 | x8 | x8 | x8 | x8 | x8 | x8 | x8 | x8 | %20
 x8 | x8 | x8 | x ecf f2 B2 | x8 | x8 | x8 | x8 | x8 | x8 | x8 | x8 | x8 | x8 | x8 | x8 | x8 | x8 | %38
 x8 | x8 | x8 | x8 | x4 ^f x x2 | x8 |[M:3/4] x6 |[M:4/4] x8 | x8 | x8 | x8 | x8 | x g x x x4 | %51
 x8 | x8 | x8 | x8 | x8 | x8 | x8 | x8 | x8 | x8 | x8 | x8 | x8 |] %64
V:3
 (.[G,B,EG] | !>![G,B,EG]2 z [E,B,E] [F,B,F]2) z ([A,EA] | %2
 !>![A,EA]2 z [F,EF] [G,EG]2) z!<(! (.[CEAc]!<)! | !>![CEAc]2 z [A,EA] [EAe]2 z"^dim."!>(! [A,EA] | %4
 [B,EG]2!>)! z [_CEF] [A,DB]2) z .[G,B,EG] | !>![G,B,EG]2 z [E,B,E] [F,B,F]2 z .[A,EA] | %6
 !>![A,EA]2 z [F,EF] [G,EG]2 z [EGce] | [EGce]2 z [G=A] [GB]2 z [D=E] | %8
 [DF]2 z [=A,EF] [B,DF]2 z .F | [FB_df]2 z [FBdf] [E_GBe]2 z [EGBe] | %10
 [FB_df]2 z [FBdf] [_FGBd_f]2 z [FGdf] | [EA_ce]2 z [EAce] [_D_FA_d]2 z [DFAd] | %12
 [_CEA_c]2 z [EAc] [DFB]2 z [Bb] |!<(! [dgbd']6!<)! [e=gae']2- | %14
!>(! ([e=gae'][dgbd']-)!>)! [dgbd']6 | x/ x/ x/ x/ G,/B,/E/G/ x/ x/ x/ x/ =G,/E/G/=A/ | %16
 x/ x/ x/ x/ B,/E/G/B/ x/ x/ x/ x/ B,/D/F/B/ | x/ x/ x/ x/ G,/B,/E/G/ x/ x/ x/ x/ A,/C/=A/c/ | %18
 x/ x/ x/ x/ G,/B,/E/G/ x/ x/ x/ x/ B,/D/_A/F/ | B2!>(! E2 x2!>)! B/d/g/b/ | %20
 z ([B,G] [G,E][B,C]) z ([B,G] [G,E][B,C]) | z ([B,G] [G,E][B,C]) z ([B,G] [G,E][B,C]) | %22
 z!<(! ([Ee]c[G=A])!<)! z ([DB]G[D=E]) | z ([G_e][=Ac][Ff]) z ([Ff][Bd][Bb]) | %24
 [_DF]2 [B,D][K:bass][_B,,_B,]!<(! [E,_G,]2!<)! [C_G]2 | ([_DF]2 [B,D])[_D,B,] [_F,G,]2 [D_F]2 | %26
 [_CE]2 [A,C][_C,A,] [_D,_F,]2 [B,_F]2 | [_CE]2 [B,_D][A,C] [=D,F,B,]2[K:treble] [B,B]2 | %28
!<(! [dgbd']6!<)! [e=gae']2- |!>(! ([e=gae'][dgbd']-)!>)! [dgbd']6 | %30
 x/ x/ x/!<(! x/ G,/B,/E/G/ x/ x/ x/ x/!<)! =A,/E/G/=A/ | x/ x/ x/ x/ B,/E/G/B/!p! x4 | %32
 z4 x2 C/G/=A/c/ | x/ x/ x/ x/ G,/B,/E/G/ x4 | B2 E2 x2 B/e/g/b/ | %35
"^più moto" !>!.[G,B,EG]2 z [G,B,EG] !>!.[F,B,F]2 z !>![F,B,F] | %36
 !>!.[A,EA]2 z [A,EA] !>!.[G,EG]2 z [G,EG] |"^cresc."!<(! .[EGce]2 z [E=A]!<)! .[B,DGB]2 z [B,=E] | %38
 [B,DF]2 x [CF=A] [B,DFB]>!f!f !>![Bb][B,B] | z ([F,B,]/>C/ D/F/B/d/) ([_G=Ac_g]>e c/A/G/E/) | %40
 z ([F,B,]/>C/ D/F/B/d/) (!>![=G^A^c=g]>=e c/A/G/=E/) | %41
 z!<(! ([^F,=B,]/>^C/ ^D/^F/=B/^d/)!<)! ([G^A^cg]>!>(!=e c/A/G/!>)!E/) | %42
 z!<(! ([^F,=B,]/>^C/ =D/^F/=B/d/)!<)! !>![=Ad=a]!<(! ([Ad]/>=e/ ^f/a/)([da]/>!<)!d'/) | %43
 [dg=bd']6 [eg=ae']2- |[M:3/4] [egae'][dg=bd']- [dgbd']4 | %45
[M:4/4] z3/2 c/ [Geg][=Aeg=a] [Begb]2 [F_AB]2 | z ([_A_c'-] c'/b/g/e/ _c/B/G/E/_C/B,/ x | %47
 !>![EG]/)D/E/B,/ x2 !>![DF]/^C/D/B,/ x2 | !>![EA]/D/E/C/ x2 !>![DF]/C/D/B,/ x2 | %49
 !>![ce]/=B/c/A/ A2!<(! !>![_Bd]/=A/B/G/!<)! x2 | [Bd]/=A/B/G/ [Af]2 !>![df]/c/d/B/- [Beb]2 | %51
 [F,B,D] !>![F,B,D]2 [FB] [_GBe_g] !>![GBeg]2 [_G,B,C] | %52
!<(! [F,B,D] !>![F,B,D]2!<)!!<(! [FBd] !>![B_d=ea]!<)! [Bdea]2 [=B,=DFG] | %53
 [G,C=EG] [G,CEG]2 [Gc] [Aca] [Aca]2 [A,CD] | [G,C=EG] [G,CEG]2 [Gc] [c_e^fb] [cefb]2 [cef=a] | %55
 [dg=bd']8 |!>(! [eg=ad']2!>)! [dg=bd']6 | %57
"^sostenuto"!p!"^Tempo I" x/ x/ x/ x/ G,/B,/E/G/ x/ x/ x/ x/ =A,/E/G/=A/ | %58
 x/ x/ x/ x/ B,/E/G/B/ x/ x/ x/ x/ B,/D/F/B/ | x2 G,/B,/E/G/ x4 | x2 G,/B,/E/G/ x4 | %61
 [EBe]2 z2 z [EGB][GBe][Beg] | (!>![egb]4 !>![_cef_c']3!8va(! [e'g'b']) | [e'e'']2!8va)! z2 z4 |] %64
V:4
 x | x8 | x8 | x8 | x8 | x8 | x8 | x8 | x8 | x8 | x8 | x8 | x8 | x8 | x8 | x8 | z4 x2 B,A, | %17
 x4 !>!g4- | (g2 e2) G3 x | x8 | x8 | x8 | x8 | x8 | x3[K:bass] x5 | x8 | x8 | x6[K:treble] x2 | %28
 x8 | x8 | x8 | (g2 e2) z (G2 A) | x4 !>!g4- | (g2 e2) z (G2 A) | x4 x4 | x2 !>!B,2 x2 !>!B,2 | %36
 x2 !>!E2 x2 !>!E2 | x2 !>!G2 x2 !>![Dd]2 | x2 !>![Ff]2 x2 x2 | x8 | x8 | x8 | x8 | x8 | %44
[M:3/4] x6 |[M:4/4] x8 | x8 | x8 | x8 | x8 | x8 | x8 | x8 | x8 | x8 | x8 | x8 | x8 | x4 x2 B,_A, | %59
 x4 !>![ee']4- | ([ee']2 [Bb]2) ([Cc]3 [Dd]) | x8 | x7!8va(! x | x2!8va)! x6 |] %64
V:5
 x | x8 | x8 | x8 | x8 | x8 | x8 | x8 | x8 | x8 | x8 | x8 | x8 | x8 | x8 | x8 | x8 | x8 | %18
 x4 x2 B,A, | x8 | x8 | x8 | x8 | x8 | x3[K:bass] x5 | x8 | x8 | x6[K:treble] x2 | x8 | x8 | x8 | %31
 x8 | x8 | x4 x4 | x8 | x8 | x8 | x8 | x8 | x8 | x8 | x8 | x8 | x8 |[M:3/4] x6 |[M:4/4] x8 | x8 | %47
 x8 | x8 | x8 | x8 | x8 | x8 | x8 | x8 | x8 | x8 | x8 | x8 | x8 | x8 | x8 | x7!8va(! x | %63
 x2!8va)! x6 |] %64
V:6
!p!!<(! [B,,E,]!<)! | [B,,E,]2!>(! z [B,,C,]!>)! [B,,D,]2 z!<(! [C,E,]!<)! | %2
 [C,E,]2 z!>(! [A,,E,]!>)! [B,,E,]2 z"^cresc."!<)!!<(! [E,A,] | %3
 [E,A,]2!<(! z [C,E,]!<)! [_C,F,]2 z!>(! [C,F,] | [B,,G,]2!>)! z [A,,F,] [B,,F,]2 z!p! [B,,E,] | %5
 [B,,E,]2!>(! z [B,,C,]!>)! [B,,D,]2 z"^poco cresc."!<(! [C,E,]!<)! | %6
 [C,E,]2 z!>(! [A,,E,]!>)! [B,,E,]2 z"^cresc."!<)!!<(! [G,C] | [G,C]2 z [CE] [G,D]2 z [G,B,] | %8
!>(! [F,B,]2 z!>)! [C,F,] [B,,F,]2 z!p! F, | [F,B,_D]2 z [F,B,D] [E,_G,B,]2 z [E,G,B,] | %10
 [F,B,_D]2 z [F,B,D] [G,B,D]2 z [G,B,D] | [A,_C]2 z [CE] [_D,A,]2 z [D,_F,A,] | %12
 [=F,A,]2 z [F,A,] [F,B,]2 x2 |!p!!<(! [GB]6!<)! [C=GA]2- |!>(! ([CGA][GB]-)!>)! [GB]6 | %15
 (G,,,/G,,/B,,/E,/!<(! x/ x/ x/!<)! x/) (C,,/C,/E,/G,/ x/ x/ x/ x/) | %16
 (C,,/B,,/E,/G,/ x/ x/ x/ x/)!>(! (C,,/B,,/D,/G,/!>)! x/ x/ x/ x/) | %17
 (E,,,/E,,/B,,/E,/ x/ x/ x/ x/) (C,,/C,/E,/=A,/ x/ x/ x/ x/) | %18
 (C,,/B,,/E,/F,/ x/ x/ x/ x/) (B,,,/B,,/D,/G,/ x/ x/ x/ x/) | %19
 (E,,,/E,,/B,,/E,/!>(! G,/B,/E/G/) (E,/B,/E/!>)!G/ x/ x/ x/ x/) |!p! z (B,,E,G,) z (B,,D,F,) | %21
 z (C,E,A,) z (B,,E,G,) |"^cresc."!<(!!<(! z (G,C!<)!!<)!E) z (=E,G,B,) | z (C,F,=A,) z (F,B,D) | %24
!p! B,,, B,,2 B,,,!<(! E,, B,,2!<)! E,, | B,,, B,,2 B,,,!<(! _D,,!<)!!>(! B,,2!>)! D,, | %26
"^rit." A,,, A,,2 A,,, _D,, A,,2 D,, | [A,,,A,,] E,2 [F,,,F,,] [B,,,B,,] B,,2 B,, | %28
!p!!<(! [GB]6!<)! [C=GA]2- |!>(! ([CGA][GB]-)!>)! [GB]6 | %30
 (G,,,/G,,/B,,/!<(!E,/ x/ x/ x/ x/) (C,,/C,/E,/G,/!<)! x/ x/ x/ x/) | %31
 (B,,,/B,,/E,/F,/ x/ x/ x/ x/) (B,,,/B,,/D,/G,/ B,/D/F/B/) | %32
 (E,,,/E,,/B,,/E,/ G,/B,/E/G/) (C,,/C,/E,/=A,/ x/ x/ x/ x/) | %33
 (B,,,/B,,/E,/F,/ x/ x/ x/ x/) (B,,,/B,,/D,/G,/ B,/D/A,/F/) | %34
 (E,,,/E,,/B,,/E,/ G,/B,/E/G/) (E,/B,/E/G/ x/ x/ x/ x/) | %35
!mf! !arpeggio![E,,B,,E,]2 z !arpeggio![E,,B,,E,] !arpeggio![E,,B,,D,]2 z !arpeggio![E,,B,,D,] | %36
 !arpeggio![E,,C,]2 z !arpeggio![E,,C,E,] !arpeggio![E,,C,E,]2 z !arpeggio![E,,B,,D,] | %37
!<(! !arpeggio![C,G,C]2 z !arpeggio![C,G,=A,]!<)! !arpeggio!!>![G,,D,G,]2 z !arpeggio![G,,=D,E,] | %38
 !arpeggio![F,,D,F,]2 x [F,,F,] [B,,F,]>F, [B,,B,][B,,,B,,] | %39
!p!!8vb(! B,,,,!<(! [B,,D,]2 [B,D]!<)! [_G,=A,C_E] (!>![E,,E,]2 [_G,,G,])!8vb)! | %40
"^cresc."!p! [B,,,B,,]!<(! ([B,,D,]2 B,)!<)!!>(! [G,^A,^C=E] (!>![=E,,=E,]2!>)! [G,,G,]) | %41
 [=B,,,=B,,]!<(! ([B,,^D,]2 ^D)!<)! =E!>(! (!>![=E,,=E,]2!>)! [G,,G,]) | %42
 [=B,,,=B,,]!<(! ([B,,=D,]2 =B,)!<)!!8vb)!!8vb(! D,,,!<(! (!>![^F,=A,]2!<)! D) | %43
!mp!!<(! [G,=B,DG]6!<)! [C,G,=A,E]2- |[M:3/4] [C,G,A,E][B,=DF]- [B,DF]4 | %45
[M:4/4]!f! [C,,C,]!<(! [G,CE]2!8vb(! [F,,,,F,,,] B,,,,2!<)!!8vb)! [B,,,,B,,,]2 | %46
!8vb(!!>(! E,,,2!8vb)! !>![B,,,E,,G,,B,,]2!>)! x2 x (3G,/E,/_C,/ | %47
 [E,,B,,]2 !>![E,G,]/D,/E,/B,,/ E,,2 !>![D,F,]/^C,/D,/B,,/ | %48
 E,,2 !>![E,A,]/D,/E,/C,/ E,,2 !>![E,G,]/D,/E,/B,,/ | %49
 E,,2 !>!C/=B,/C/B,/"^cresc."!<(! G,,2!<)! !>![_B,D]/=A,/B,/=E,/ | %50
 F,,2 C/=B,/C/F,/ [_B,,_B,]2 (_G,,/F,,/G,,/E,,/) | %51
!mf! [F,,B,,D,] !>![F,,B,,D,]2 D [CE] [CE]2 [E,,B,,] | %52
"^cresc."!<(! [B,,,F,,D,] [B,,,F,,D,]2!<)!"^cresc."!<(! [B,D] [B,_D=EA]!<)! [B,DEA]2 [G,,=D,G,] | %53
 [C,,G,,=E,] [C,,G,,E,]2 =E [DF] [DF]2 [F,,C,] | %54
 [C,,G,,=E,] [C,,G,,E,]2[K:treble] [C=E] [C_E^FB] [CEFB]2 [CEF=A] |!f! [G,D=B]8 | %56
!>(! [CEG_A]2!>)! [G,D=B]6 | (G,,,/G,,/_B,,/E,/ x/ x/ x/ x/) (C,,/C,/E,/G,/ x/ x/ x/ x/) | %58
 (B,,,/B,,/E,/G,/ x/ x/ x/ x/) (B,,,/B,,/D,/G,/ x/ x/ x/ x/) | %59
 (E,,,/E,,/B,,/E,/ x2 (C,,/)C,/E,/F,/ =A,/C/E/F/) | %60
 C,,/B,,/E,/F,/[K:treble] !>!c2[K:bass] [B,,A,]3 z | z [E,G,B,]2 [G,B,E] [G,CE]x x2 | %62
 [EG]4 [A,EF]3 [EG] | [E,,,E,,]2 z2 z4 |] %64
V:7
 x | z2 !>!E,,4 !>!E,,2 | z2 !>!E,,4 !>!E,,2 | z2 !>!E,,4 E,,2 | z2 !>!E,,4 E,,2 | z2 E,,4 E,,2 | %6
 z2 E,,4 E,,2 | z2 C,,2 z2 G,,2 | z2 F,,2 z2 B,,,2 | z3/2 F,,/ [B,,,B,,]2 z3/2 B,,,/ [E,,,E,,]2 | %10
 z3/2 F,,/ [B,,,B,,]2 z3/2 B,,/ [_D,,_D,]2 | z3/2 E,,/ [A,,,A,,]2 z3/2 F,,/ [_B,,,_B,,]2 | %12
 z3/2 _C,,/ [=F,,,=F,,]2 z3/2 F,,/ [B,,,B,,][B,,B,] | x8 | x8 | G,,,2 x2 C,,2 x2 | %16
 C,,2 x2 C,,2 x2 | E,,,2 x2 C,,2 x2 | C,,2 x2 B,,,2 x2 | E,,,2 x2 E,2 x2 | E,,3 z E,,3 z | %21
 E,,3 z E,,3 z | C,3 z G,,3 z | F,,3 z B,,3 z | x8 | x8 | x8 | x8 | x8 | x8 | G,,,2 x2 C,,2 x2 | %31
 B,,,2 x2 B,,,2 x2 | E,,,2 x2 C,,2 x2 | B,,,2 x2 B,,,2 x2 | E,,,2 x2 E,2 x2 | x8 | x8 | x8 | %38
 x2 !>!F,2 x4 |!8vb(! x8!8vb)! | x8 | x2 x B, [^A,^C] x x2 | x4!8vb)!!8vb(! x4 | x8 |[M:3/4] x6 | %45
[M:4/4] x3!8vb(! x3!8vb)! x2 |!8vb(! x2!8vb)! x6 | x8 | x8 | x8 | x8 | x8 | x8 | x8 | %54
 x3[K:treble] x5 | x8 | x8 | G,,,2 x2 C,,2 x2 | B,,,2 x2 B,,,2 x2 | E,,,2 x2 C,,2 x2 | %60
 (C,,2[K:treble] x2)[K:bass] x2 x2 | [E,,B,,]2 x2 x4 | x8 | x8 |] %64
V:8
 x | x8 | x8 | x8 | x8 | x8 | x8 | x8 | x8 | x8 | x8 | x8 | x8 | x8 | x8 | x8 | x8 | x8 | x8 | x8 | %20
 x8 | x8 | x8 | x8 | x8 | x8 | x8 | x8 | x8 | x8 | x8 | x4 x2 B,A, | x8 | x4 x2 B,A, | x8 | x8 | %36
 x8 | x8 | x8 |!8vb(! x8!8vb)! | x8 | x8 | x4!8vb)!!8vb(! x4 | x8 |[M:3/4] x6 | %45
[M:4/4] x3!8vb(! x3!8vb)! x2 |!8vb(! x2!8vb)! x6 | x8 | x8 | x8 | x8 | x8 | x8 | x8 | %54
 x3[K:treble] x5 | x8 | x8 | x8 | x8 | x8 | x2[K:treble] x2[K:bass] x4 | x8 | x8 | x8 |] %64

